icons/evolvere-blue-folders-flat-vivid-dark-fallback/apps/64/haguichi.svg

<?xml version="1.0" encoding="UTF-8" standalone="no"?>
<!-- Created with Inkscape (http://www.inkscape.org/) -->

<svg
   xmlns:dc="http://purl.org/dc/elements/1.1/"
   xmlns:cc="http://creativecommons.org/ns#"
   xmlns:rdf="http://www.w3.org/1999/02/22-rdf-syntax-ns#"
   xmlns:svg="http://www.w3.org/2000/svg"
   xmlns="http://www.w3.org/2000/svg"
   xmlns:xlink="http://www.w3.org/1999/xlink"
   xmlns:sodipodi="http://sodipodi.sourceforge.net/DTD/sodipodi-0.dtd"
   xmlns:inkscape="http://www.inkscape.org/namespaces/inkscape"
   width="64"
   height="64"
   id="svg13094"
   version="1.1"
   inkscape:version="0.91+devel r"
   sodipodi:docname="haguichi.svg">
  <sodipodi:namedview
     id="base"
     pagecolor="#ffffff"
     bordercolor="#666666"
     borderopacity="1.0"
     inkscape:pageopacity="0"
     inkscape:pageshadow="2"
     inkscape:zoom="11.313709"
     inkscape:cx="20.632933"
     inkscape:cy="32.069872"
     inkscape:document-units="px"
     inkscape:current-layer="svg13094"
     showgrid="false"
     inkscape:snap-bbox="true"
     inkscape:bbox-paths="true"
     inkscape:bbox-nodes="true"
     inkscape:snap-bbox-edge-midpoints="true"
     inkscape:snap-bbox-midpoints="true"
     inkscape:object-paths="true"
     inkscape:snap-intersection-paths="true"
     inkscape:object-nodes="true"
     inkscape:snap-smooth-nodes="true"
     inkscape:snap-midpoints="true"
     inkscape:snap-object-midpoints="true"
     inkscape:snap-center="true"
     showguides="true"
     inkscape:guide-bbox="true"
     inkscape:window-width="1920"
     inkscape:window-height="1023"
     inkscape:window-x="-10"
     inkscape:window-y="35"
     inkscape:window-maximized="1"
     inkscape:snap-global="true"
     fit-margin-top="0"
     fit-margin-left="0"
     fit-margin-right="0"
     fit-margin-bottom="0"
     showborder="true"
     inkscape:showpageshadow="false"
     inkscape:snap-page="true">
    <inkscape:grid
       type="xygrid"
       id="grid3075"
       empspacing="5"
       visible="true"
       enabled="true"
       snapvisiblegridlinesonly="true"
       originx="1.6362304e-08px"
       originy="18px" />
  </sodipodi:namedview>
  <defs
     id="defs13096">
    <linearGradient
       id="linearGradient5602">
      <stop
         offset="0"
         style="stop-color:#ddb043;stop-opacity:1;"
         id="stop5604" />
      <stop
         offset="1"
         style="stop-color:#d4924f;stop-opacity:1;"
         id="stop5606" />
    </linearGradient>
    <radialGradient
       inkscape:collect="always"
       xlink:href="#linearGradient5602"
       id="radialGradient3854"
       gradientUnits="userSpaceOnUse"
       gradientTransform="matrix(0,1.5664109,-1.4685103,0,81.929351,-16.125151)"
       cx="21.302004"
       cy="34"
       fx="21.302004"
       fy="34"
       r="32" />
  </defs>
  <metadata
     id="metadata13099">
    <rdf:RDF>
      <cc:Work
         rdf:about="">
        <dc:format>image/svg+xml</dc:format>
        <dc:type
           rdf:resource="http://purl.org/dc/dcmitype/StillImage" />
        <dc:title></dc:title>
      </cc:Work>
    </rdf:RDF>
  </metadata>
  <path
     id="path3852"
     d="m 0,4 0,30 0,28 2,2 30,0 30,0 2,-2 L 64,34 64,4 32,4 0,4 z"
     style="color:#000000;fill:url(#radialGradient3854);fill-opacity:1;fill-rule:nonzero;stroke:none;stroke-width:2.28571415;marker:none;visibility:visible;display:inline;overflow:visible;enable-background:accumulate"
     inkscape:connector-curvature="0" />
  <path
     style="color:#000000;fill:#e4a32b;fill-opacity:1;fill-rule:nonzero;stroke:none;stroke-width:2.28571415;marker:none;visibility:visible;display:inline;overflow:visible;enable-background:accumulate"
     d="M 0 4 L 0 34 L 0 62 L 2 64 L 32 64 L 62 64 L 64 62 L 64 34 L 64 4 L 32 4 L 0 4 z "
     id="path6498" />
  <path
     style="color:#000000;fill:#ffe44c;fill-opacity:1;fill-rule:nonzero;stroke:none;marker:none;visibility:visible;display:inline;overflow:visible;enable-background:accumulate;stroke-width:2.28571415000000000"
     d="M 2 0 L 0 1 L 0 4 L 32 4 L 64 4 L 64 1 L 62 0 L 32 0 L 2 0 z "
     id="path6502" />
  <path
     style="fill:#ffe868;fill-opacity:1;fill-rule:nonzero"
     d="M 0,3 0,6 2,4 Z"
     id="path4298"
     inkscape:connector-curvature="0"
     sodipodi:nodetypes="cccc" />
  <path
     d="M 64,6 62,4 64,3 z"
     id="path3028"
     style="fill:#f0c03a;fill-opacity:1"
     inkscape:connector-curvature="0" />
  <g
     id="g3043"
     inkscape:export-filename="folder.png"
     inkscape:export-xdpi="90"
     inkscape:export-ydpi="90"
     transform="translate(-0.62500009,0.082283)" />
  <g
     id="scalable"
     transform="matrix(1.0385892,0,0,1.0385892,1214.7222,1878.8121)"
     inkscape:label="#g3701"
     style="fill:#ffffff" />
  <path
     style="color:#000000;fill:#4e1f0f;fill-opacity:0.61717355;fill-rule:nonzero;stroke:none;stroke-width:1;marker:none;visibility:visible;display:inline;overflow:visible;enable-background:accumulate"
     d="m 38.544687,55.740866 c -1.994263,-0.516893 -3.973228,-2.129551 -4.8731,-3.971091 -0.341938,-0.699753 -0.626399,-1.832675 -0.831896,-3.313183 -0.420085,-3.026524 -0.771527,-4.004383 -1.830939,-5.09444 -1.575033,-1.62059 -2.182971,-1.816685 -6.041256,-1.948651 -3.149208,-0.107715 -3.451607,-0.153182 -4.525113,-0.680372 -1.418914,-0.696817 -2.901442,-2.24779 -3.593463,-3.759369 -1.679948,-3.669484 0.04538,-8.128891 3.814132,-9.858243 1.01858,-0.467392 1.478379,-0.533221 4.508973,-0.645544 3.654864,-0.135461 4.02628,-0.235681 5.425078,-1.46384 1.055153,-0.926436 1.675734,-2.124594 1.94329,-3.751913 0.793023,-4.823282 1.009077,-5.421609 2.497157,-6.915504 2.602605,-2.612769 6.738987,-2.92595 9.758217,-0.738831 1.863576,1.349966 2.944452,3.565698 2.949584,6.046472 0.0031,1.477793 -0.07324,1.820375 -0.679889,3.052649 -0.84193,1.7102 -2.007568,2.904126 -3.592266,3.679447 -1.153437,0.564325 -1.35276,0.593821 -4.331538,0.640978 -3.627459,0.05742 -4.550173,0.330742 -5.952292,1.763119 -1.420195,1.450845 -1.779202,2.511147 -1.779202,5.254739 0,2.726401 0.323035,3.646433 1.802416,5.133433 1.449396,1.456864 2.217495,1.684762 5.808868,1.723515 3.051964,0.03293 3.136978,0.04606 4.432492,0.683829 3.351905,1.650139 5.072463,5.375619 4.044959,8.758451 -0.729531,2.401828 -2.256129,4.14086 -4.45856,5.079 -0.897006,0.382083 -3.539058,0.573289 -4.495652,0.325349 z"
     id="path3847"
     inkscape:connector-curvature="0" />
</svg>

<svg xmlns="http://www.w3.org/2000/svg" viewBox="0 0 64 64"><defs><radialGradient id="0" gradientUnits="userSpaceOnUse" gradientTransform="matrix(0 1.56641-1.46851 0 81.929-16.13)" cx="21.302" cy="34" r="32"><stop stop-color="#ddb043"/><stop offset="1" stop-color="#d4924f"/></radialGradient></defs><g color="#000"><path d="m0 4v30 28l2 2h30 30l2-2v-28-30h-32-32" fill="url(#0)"/><path d="m0 4v30 28l2 2h30 30l2-2v-28-30h-32-32" fill="#e4a32b"/><path d="m2 0l-2 1v3h32 32v-3l-2-1h-30-30" fill="#ffe44c"/></g><path d="m0 3v3l2-2" fill="#ffe868"/><path d="m64 6l-2-2 2-1z" fill="#f0c03a"/><path d="m38.545 55.741c-1.994-.517-3.973-2.13-4.873-3.971-.342-.7-.626-1.833-.832-3.313-.42-3.03-.772-4-1.831-5.094-1.575-1.621-2.183-1.817-6.04-1.949-3.149-.108-3.452-.153-4.525-.68-1.419-.697-2.901-2.248-3.593-3.759-1.68-3.669.045-8.129 3.814-9.858 1.019-.467 1.478-.533 4.509-.646 3.655-.135 4.03-.236 5.425-1.464 1.055-.926 1.676-2.125 1.943-3.752.793-4.823 1.01-5.422 2.497-6.916 2.603-2.613 6.739-2.926 9.758-.739 1.864 1.35 2.944 3.566 2.95 6.05.003 1.478-.073 1.82-.68 3.053-.842 1.71-2.01 2.904-3.592 3.679-1.153.564-1.353.594-4.332.641-3.627.057-4.55.331-5.952 1.763-1.42 1.451-1.779 2.511-1.779 5.255 0 2.726.323 3.646 1.802 5.133 1.449 1.457 2.217 1.685 5.809 1.724 3.052.033 3.137.046 4.432.684 3.352 1.65 5.072 5.376 4.045 8.758-.73 2.402-2.256 4.141-4.459 5.079-.897.382-3.539.573-4.496.325" fill="#4e1f0f" fill-opacity=".617" color="#000"/></svg>
